X:1
T:O folgoranti
T:O folgoranti
T:Ludovico Bellanda Veronese
T:Source : Musische di L.Bellanda---Venetia---G.Vincenti---1607. Editor : André Vierendeels (27/06/15).
T:Notes : Original clefs : C4, F4 Figures in BC are notated in original print Lyrics by Alberto Fabriani
C:Ludovico Bellanda Veronese
%%score 1 2
L:1/8
Q:1/4=80
M:4/4
K:F
V:1 treble-8 nm="Tenor" snm="T"
V:2 bass nm="BC" snm="BC"
V:1
 c4 cBAG | F4 F2 A2 | AGFE D/E/F/G/ A/G/F/G/ | A/B/c/A/ B/c/d/e/ f2 e2- | ef g2 a4- | a4 a4 | %6
w: O fol- go- ran- ti|lu- mi, O|fol- go- ran- ti lu- * * * * * * *|* * * * * * * * * mi'ar-|* chi del Cie-|* lo,|
 z2 z E AFED | G4 EEFG | AABc dDDD | _E3 C D2 G2 | z2 z F D/E/F/E/ D/E/F/G/ | %11
w: se'in voi a- no- da'il|co- re, a che fe-|tir, a che fe- tir l'e- sa- ni-|ma- to ve- lo,|vi- bra- * * * * * * *|
 A2 AA F/G/A/G/ F/G/A/B/ | c3 B d3 c | cccd _e4 | c4 z GGA | BGAG AB c2- | c2 B/c/d A4 | G8 | %18
w: * te, vi- bra- * * * * * * *|* t'in voi le|fiam- m'e'i cru- do stra-|li, ch'an- ci- de-|re- te'in voi gli split- ti miei|_ vi- * * ta-|li,|
 z2 B2 G4 | z2 c2 AGAF | G4 G4 | z EEE A3 E | ^F2 A3 DDD | D8 | E4 z2 G2 | F2 A4 ED | %26
w: ma che,|ma che se di- ra|po- i,|non piu de l'al- me|no _ stel- la- ti|Ni-|di, voi|se- te'ur- ne di|
 ^C2 C2 z2 F2- | F2 DE ^C4 | D4 z2 B2- | B2 GA ^F4 | G4 z2 _e2- | e2 cd =B4 | c8 :| %33
w: mot- te oc-|* chi'o- mi- ci-|di, oc-|* chi'o- mi- ci-|di, oc-|* chi'o- mi- ci-|di.|
V:2
 C,4 G,,4 | B,,C, D,E, F,4 | F,,4 B,,2 A,,2- | A,,2 G,,2 F,,2 C,2- | C,D, E,2 F,4- | F,4 F,,4 | %6
 A,,4 A,,2 B,,2 | G,,4 C,4 | F,,4 B,,4 |"^b""^-natural" C,4 G,,4 | D,4 D,4 | D,4 D,4 | %12
"^6" C,4 B,,4 | F,,4 C,4 |"^6" A,,4 G,,4- | G,,2 D,4 C,2 |"^#" D,8 |"^-natural" G,,8 | %18
"^b" G,,4 C,4 | A,,4 D,4 | C,4 C,4 |"^#" C,4 A,,4 |"^#""^#" D,4 D,4 | G,,8 | C,4 C,4 | F,,6 G,,2 | %26
"^#""^5""^4" A,,8- |"^#""^3" A,,8 |"^#""^3""^4" D,8- |"^#3" D,8 |"^11""^-natural10" G,,8- | %31
"^-natural10" G,,8 | C,8 :| %33

